X:1
T:Portland
T:Joseph Hart, 1759                        76. 76. 78. 76. 
T:Transcribed from Divine Songs, 1789.
T:F Major                       Abraham Wood, 1789 
%%score [ 1 2 3 4 ]
L:1/8
Q:1/4=110
M:2/4
K:F
V:1 treble nm="Tr." snm="Tr."
V:2 treble nm="C." snm="C."
V:3 treble-8 nm="T." snm="T."
V:4 bass nm="B." snm="B."
V:1
"^\n""_1. Jesus,  Lord of  life  and peace, To   thee we   lift   our voice;  Teach us  at   thy   ho – li  –   ness   To      trem         –         ble     and     re  –  joice.  Sweet  and  ter –ri –ble's  thy word;\n" A2 A2 | %1
 G2 G2 | B2 B2 | A3 A | B2 B2 | cd c2 | c4 | d2 d2 | c2 c2 | d2 d2 | c3 c | c/d/c/B/A A | B2 G2 | %13
 G4 | A3 G | F3/2 G/ A G | A4 | %17
"_1. Thou  and  thy  word   are   both   the  same,  Holy,     holy,        holy     Lord,  We   love  thy       ho  – ly        name.   Holy,    holy,      ho – ly        Lord,  We   love      thy       holy    name.\n" c2 c c | %18
 c3 A | GF E2 | F4 | A2 A2 | B2 B2 | F2 G2 | A3 A | d2 c2 | c2 c2 | c4 | z4 | c2 c2 | c2 c2 | %31
 G3 G | G2 FG | A2 G2 | F4 |] %35
V:2
"_2. Burning seraphs round thy throne  Beyond all brightness bright,  Bow their bashful heads, and own  Their  own _________ di  –  min – ished   light.  Worthy    thou   to   be   a  –  dored,\n3. Saints, in whom thy Spirit dwells,  Pour out their souls to  thee;  Each his  tale  in  se – cret     tells,  And   sighs ________  to      be       set     free. Christ admired, themselves abhorred,\n\n" F2 F2 | %1
 E2 E2 | F2 F2 | F3 F | F2 G2 | F<A G2 | A4 | F2 G2 | F2 A2 | F2 F2 | E3 E | F/G/F/E/F F | G2 GF | %13
 E4 | z4 | z4 | z4 | %17
"_2. Lord God Al – migh – ty,  great    I     Am!     Holy,     holy,        holy     Lord,  We   love  thy       ho  – ly        name.   Holy,    holy,      ho – ly        Lord,  We   love      thy       holy    name. \n3. They cry with  awe,  de–light  and  shame,   Holy,     holy,        holy     Lord,  We   love  thy       ho  – ly        name.   Holy,    holy,      ho – ly        Lord,  We   love      thy       holy    name. \n\n" F2 F E | %18
 F3 F | G2 G2 | A4 | F2 F2 | G2 G2 | F2 E2 | F3 A | G2 F2 | G2 G2 | A4 | F2 F2 | F2 F2 | G2 GF | %31
 E3 D | E2 F2 | F2 G2 | A4 |] %35
V:3
"_4. Men whose hearts admit not fear  At  thy  per–fec –tions awed, Use thy name but not re   –   vere  The    ho           –           ly      child   of       God;  These  thy  kingdom  own  in   word:\n5. Just and righteous is  our  King,  Glo–rious  in   ho  –  li  –ness:  Though we tremble, while we sing.  We   would ________ not    wish   it        less.  Souls by whom the truth's explored\n" F2 A2 | %1
 c2 c2 | d2 d2 | c3 c | d2 e2 | f2 e2 | f4 | d2 B2 | c2 A2 | B2 BA | G3 G | A/G/A/B/c c | d2 =B2 | %13
 c4 | c3 B | A3/2 G/ F E | F4 | %17
"_4. Save us  from  loy  – al  –  ty       so  lame.   Holy,     holy,        holy     Lord,  We   love  thy       ho  – ly        name.   Holy,    holy,      ho – ly        Lord,  We   love      thy       holy    name.\n5. Wonders  of    mer – cy     best   pro–claim.  Holy,     holy,        holy     Lord,  We   love  thy       ho  – ly        name.   Holy,    holy,      ho – ly        Lord,  We   love      thy       holy    name.\n" A2 A G | %18
 A3 A | B2 G2 | A4 | c2 c2 | d2 d2 | c2 B2 | c3 c | B2 A2 | G3 F | F4 | B2 B2 | A2 A2 | G2 G2 | %31
 c3 d | cB AG | F2 E2 | F4 |] %35
V:4
 F,2 F,2 | C,2 C,2 | B,,2 B,,2 | F,3 F, | B,2 G,2 | A,B, C2 | F,4 | B,2 G,2 | A,2 F,2 | B,,2 B,,2 | %10
 C,3 C, | F,/G,/F,/G,/A, A, | G,2 G,,2 | C,4 | z4 | z4 | z4 | %17
"_______________________________________________\nEdited by B. C. Johnston, 2019\n   1. Measure of rest after measure 14 eliinated.\n   2. Measure 24, \nTenor\n: second note changed from B-natural to B-flat.\n" F,2 F, C, | %18
 F,3 F, | B,,2 C,2 | F,4 | F,2 F,2 | B,2 G,2 | A,2 G,2 | F,3 F, | G,2 A,B, | C2 C,2 | F,4 | z4 | %29
 F,2 F,2 | C,2 C,2 | C,3 B,, | C,2 D,E, | F,2 C,2 | [F,,F,]4 |] %35

